source/img/logo-big-white.svg

<svg width="258" height="40" viewBox="0 0 258 40" fill="none" xmlns="http://www.w3.org/2000/svg">
<g clip-path="url(#clip0)">
<path fill-rule="evenodd" clip-rule="evenodd" d="M27.7456 29.2062L27.3587 29.6243C28.2765 30.0616 29.1156 30.651 29.8413 31.3681C29.263 30.5374 28.5553 29.8073 27.7456 29.2062ZM3.36805 34.82C2.53924 36.0126 1.91498 37.338 1.52148 38.7405H6.37824C6.71688 37.5507 7.2488 36.4262 7.95221 35.4131C11.1764 30.6682 17.6247 27.8984 23.2611 28.4856L24.5097 27.498L24.1492 27.3735C17.015 25.1256 7.71187 28.4529 3.36805 34.82Z" fill="#F04B24"/>
<path d="M31.1896 31.0746C31.8815 32.2072 32.3388 33.4701 32.5338 34.7869C32.7288 36.1036 32.6573 37.4467 32.3239 38.7347H40.6422C41.5684 34.749 40.6598 30.9293 38.0746 27.9371L31.1896 31.0746ZM7.29856 28.1951L7.93753 29.0848C9.51777 28.0763 11.2163 27.2713 12.9936 26.6886L12.9672 24.8322C10.9494 25.7155 9.04579 26.8449 7.29856 28.1951ZM0.000244141 38.7317H0.381281C0.803041 37.1546 1.49769 35.6656 2.43302 34.3338C2.5444 34.1707 2.65578 34.0165 2.76423 33.8652L2.24543 33.6339C1.21178 35.1893 0.45216 36.914 0.000244141 38.7317ZM2.94009 32.6138L3.5263 32.8836C4.53653 31.7152 5.68089 30.6729 6.93511 29.7787L6.3489 28.975C5.08122 30.0546 3.93774 31.2752 2.94009 32.6138ZM32.5349 24.0226L29.5716 27.2254L28.578 28.3137C29.249 28.8479 29.8791 29.4328 30.4627 30.0634L37.1777 27C35.8194 25.7334 34.2467 24.7248 32.5349 24.0226ZM22.6719 25.8523C23.3745 25.9742 24.0687 26.1416 24.75 26.3535C25.008 26.4365 25.3363 26.5492 25.6118 26.65L30.0084 23.1596C28.348 22.7225 26.6439 22.4777 24.9288 22.4301L22.6719 25.8523ZM21.3354 25.6744L23.4662 22.4301C20.2843 22.5307 17.142 23.1743 14.1719 24.3339L14.1983 26.3298C15.9644 25.847 17.7854 25.5998 19.6148 25.5943C20.1952 25.5943 20.7726 25.6269 21.3354 25.6744ZM18.3457 37.3023C18.1731 37.4887 17.9417 37.6083 17.6913 37.6405C17.4409 37.6728 17.1872 37.6157 16.974 37.479C16.7608 37.3424 16.6013 37.1347 16.5231 36.8919C16.445 36.6491 16.453 36.3862 16.5458 36.1487C16.6385 35.9112 16.8103 35.7139 17.0314 35.5908C17.2526 35.4676 17.5092 35.4264 17.7572 35.4742C18.0052 35.522 18.2289 35.6558 18.3898 35.8525C18.5507 36.0493 18.6388 36.2966 18.6388 36.552C18.6388 36.8307 18.534 37.0989 18.3457 37.3023ZM25.5444 27.9104L24.5654 28.6903L17.7536 34.1114H17.5543C17.0766 34.1125 16.6098 34.2569 16.2131 34.5262C15.8163 34.7954 15.5073 35.1776 15.325 35.6244C15.1427 36.0712 15.0953 36.5627 15.1888 37.0367C15.2823 37.5107 15.5125 37.9461 15.8503 38.2879C16.1881 38.6297 16.6185 38.8626 17.087 38.9572C17.5555 39.0518 18.0412 39.0039 18.4828 38.8194C18.9245 38.635 19.3022 38.3223 19.5683 37.9209C19.8345 37.5195 19.9771 37.0473 19.9783 36.5639C19.9769 36.4527 19.9681 36.3417 19.9519 36.2317L26.4354 29.233L26.9542 28.6696L33.5373 21.5522L25.5444 27.9104Z" fill="white"/>
<path d="M32.1011 21.8251L35.3985 19.1976L31.9633 17.356V21.7835L32.1011 21.8251Z" fill="white"/>
<path d="M33.7748 22.5308C35.5121 23.309 37.1074 24.3777 38.4938 25.6921L39.2735 26.472V21.2764L36.2193 19.6394L33.6077 22.4655L33.7748 22.5308ZM9.96001 24.316C11.2262 23.6132 12.3049 23.0616 12.3049 23.0616L13.9697 22.3647V10.2059L9.94829 12.3619L9.96001 24.316ZM30.9698 12.35L26.9513 10.2059V20.7188C28.3104 20.8603 29.6549 21.1203 30.9698 21.4958V12.35ZM4.77791 27.8717L6.7212 26.297C7.44506 25.785 8.19444 25.3108 8.96638 24.8765V17.3559L1.65927 21.2823V31.2614C2.58849 30.0325 3.63289 28.8974 4.77791 27.8717ZM15.9892 3.40592L20.4649 1.01272V20.8048C20.7961 20.7603 21.1273 20.7248 21.4585 20.6921V12.608L25.9577 10.2059V2.94923L20.4649 0.00146484L14.9721 2.94923V22.0385L15.9892 21.6826V3.40592ZM64.3369 28.0141V16.745H60.5265V28.0141C60.5265 28.4105 60.4493 28.8031 60.2994 29.1694C60.1494 29.5357 59.9297 29.8685 59.6526 30.1488C59.3755 30.4291 59.0466 30.6515 58.6846 30.8032C58.3226 30.9549 57.9346 31.033 57.5427 31.033H53.4803C53.0884 31.033 52.7004 30.9549 52.3384 30.8032C51.9764 30.6515 51.6475 30.4291 51.3704 30.1488C51.0933 29.8685 50.8736 29.5357 50.7236 29.1694C50.5736 28.8031 50.4965 28.4105 50.4965 28.0141V16.745H46.6861V28.0141C46.6861 29.6894 47.3439 31.296 48.5147 32.4806C49.6855 33.6652 51.2735 34.3307 52.9292 34.3307H58.0879C58.9082 34.3315 59.7207 34.1687 60.4788 33.8516C61.237 33.5345 61.9259 33.0694 62.5062 32.4827C63.0866 31.8961 63.547 31.1995 63.8611 30.4327C64.1752 29.666 64.3369 28.8441 64.3369 28.0141ZM84.9217 21.9644C84.9186 20.5819 84.3738 19.257 83.4068 18.2803C82.4398 17.3036 81.1294 16.7547 79.763 16.7539H68.0886V34.3307H71.899V27.1926H75.8442L81.7532 34.3307H86.3667L80.4401 27.1659C83.3741 26.9376 84.9246 25.1494 84.9217 21.9644ZM71.8932 23.892V20.0367H79.2208C80.5485 20.0367 81.1172 20.6121 81.1172 21.9584C81.1172 23.3048 80.5485 23.8771 79.2208 23.8771L71.8932 23.892ZM101.11 34.3307C104.352 34.3307 106.066 32.5988 106.066 29.3189C106.066 27.2134 105.29 26.0568 104.413 25.4459C105.331 24.6541 105.794 23.4204 105.794 21.7657C105.794 18.4858 104.079 16.7539 100.837 16.7539H88.691V34.3307H101.11ZM92.4955 20.0516H100.093C101.424 20.0516 101.989 20.6269 101.989 21.9733C101.989 23.3196 101.424 23.892 100.093 23.892H92.4955V20.0516ZM100.362 27.1926C101.693 27.1926 102.262 27.765 102.262 29.1113C102.262 30.4577 101.693 31.033 100.362 31.033H92.4955V27.1926H100.362ZM123.412 34.3307H127.305L119.194 16.7539H115.789L107.681 34.3307H111.606L113.365 30.4755H121.627L123.412 34.3307ZM114.868 27.1867L117.492 21.5106L120.129 27.1867H114.868Z" fill="white"/>
<path d="M133.533 34.3308V22.2254L143.59 34.3308H147.104V16.751H143.299V28.8564L133.243 16.751H129.729V34.3308H133.533Z" fill="white"/>
<path d="M169.755 23.3937H162.929C162.667 23.3933 162.408 23.3408 162.167 23.239C161.925 23.1373 161.706 22.9884 161.521 22.8008C161.337 22.6132 161.19 22.3907 161.091 22.1459C160.991 21.9011 160.941 21.6389 160.941 21.3742C160.941 19.9685 161.528 19.3695 162.929 19.3695H174.591V15.9116H162.404C161.684 15.9116 160.972 16.0558 160.307 16.336C159.643 16.6162 159.04 17.0268 158.533 17.5441C158.027 18.0614 157.626 18.6751 157.355 19.3498C157.085 20.0245 156.949 20.7468 156.955 21.475C156.984 24.9981 158.852 26.8604 162.36 26.8604H169.186C169.714 26.862 170.219 27.0752 170.592 27.4532C170.964 27.8312 171.174 28.3432 171.174 28.877C171.174 30.2827 170.587 30.8817 169.186 30.8817H157.239V34.3396H169.711C170.43 34.3392 171.142 34.195 171.805 33.9152C172.469 33.6354 173.071 33.2256 173.578 32.7093C174.084 32.1931 174.485 31.5806 174.756 30.9071C175.028 30.2336 175.165 29.5124 175.16 28.7851C175.131 25.2531 173.263 23.3937 169.755 23.3937Z" fill="#F04B24"/>
<path d="M177.288 19.3695H184.683V34.3307H188.669V19.3695H196.061V15.9116H177.288V19.3695ZM214.448 15.9116L208.811 23.7318L203.184 15.9116H198.588L206.818 27.3231V34.3307H210.805V27.3231L219.035 15.9116H214.448ZM237.814 30.8728H225.302V15.9116H221.318V34.3307H237.814V30.8728ZM258 30.8728H244.635V26.8486H256.863V23.3937H244.635V19.3695H257.716V15.9116H240.649V34.3307H258V30.8728Z" fill="#F04B24"/>
</g>
<defs>
<clipPath id="clip0">
<rect width="258" height="39" fill="white" transform="translate(0.000244141 0.00146484)"/>
</clipPath>
</defs>
</svg>

<svg width="258" height="40" fill="none" xmlns="http://www.w3.org/2000/svg"><g clip-path="url(#clip0)"><path fill-rule="evenodd" clip-rule="evenodd" d="M27.746 29.206l-.387.418a9.104 9.104 0 012.482 1.744 9.332 9.332 0 00-2.095-2.162zM3.368 34.82a13.045 13.045 0 00-1.847 3.92h4.857a11.22 11.22 0 011.574-3.327c3.224-4.745 9.673-7.515 15.31-6.927l1.248-.988-.36-.125c-7.135-2.247-16.438 1.08-20.782 7.447z" fill="#F04B24"/><path d="M31.19 31.075a9.944 9.944 0 011.134 7.66h8.318c.926-3.986.018-7.806-2.567-10.798l-6.885 3.138zm-23.891-2.88l.639.89a22.33 22.33 0 015.056-2.396l-.027-1.857A26.937 26.937 0 007.3 28.195zM0 38.732h.381a13.9 13.9 0 012.052-4.398c.111-.163.223-.318.331-.469l-.519-.231A16.328 16.328 0 000 38.732zm2.94-6.118l.586.27a19.378 19.378 0 013.41-3.105l-.587-.804a22.22 22.22 0 00-3.409 3.639zm29.595-8.591l-2.963 3.202-.994 1.089a16.951 16.951 0 011.885 1.75L37.178 27a15.352 15.352 0 00-4.643-2.977zm-9.863 1.83c.703.121 1.397.289 2.078.5.258.083.586.196.862.297l4.396-3.49a22.392 22.392 0 00-5.08-.73l-2.256 3.422zm-1.337-.179l2.131-3.244c-3.182.1-6.324.744-9.294 1.904l.026 1.996a20.776 20.776 0 015.417-.736c.58 0 1.158.033 1.72.08zm-2.99 11.628a1.08 1.08 0 01-1.371.177 1.096 1.096 0 01-.45-.587 1.11 1.11 0 01.022-.743c.093-.238.264-.435.485-.558a1.073 1.073 0 011.359.261 1.105 1.105 0 01-.044 1.45zm7.2-9.392l-.98.78-6.811 5.421h-.2a2.397 2.397 0 00-1.34.415 2.44 2.44 0 00-.889 1.098 2.473 2.473 0 00.525 2.664 2.391 2.391 0 002.633.532 2.453 2.453 0 001.495-2.256 2.496 2.496 0 00-.026-.332l6.483-6.999.52-.563 6.582-7.118-7.993 6.358zm6.556-6.085l3.297-2.627-3.435-1.842v4.427l.138.042zm1.674.705a16.903 16.903 0 014.719 3.162l.78.78v-5.196l-3.055-1.637-2.611 2.826.167.066zM9.96 24.317c1.266-.703 2.345-1.254 2.345-1.254l1.665-.697v-12.16l-4.022 2.157.012 11.954zM30.97 12.35l-4.019-2.144v10.513c1.36.141 2.704.401 4.019.777V12.35zM4.778 27.872l1.943-1.575a25.769 25.769 0 012.245-1.42v-7.521L1.66 21.282v9.98a23.916 23.916 0 013.119-3.39zM15.989 3.406l4.476-2.393v19.792c.331-.045.662-.08.994-.113v-8.084l4.499-2.402V2.949L20.465.001 14.972 2.95v19.09l1.017-.356V3.406zm48.348 24.608V16.745h-3.81v11.27a3.051 3.051 0 01-.874 2.134 2.982 2.982 0 01-2.11.884H53.48a2.954 2.954 0 01-2.11-.884 3.021 3.021 0 01-.873-2.135V16.745h-3.81v11.27c0 1.674.657 3.281 1.828 4.466a6.206 6.206 0 004.414 1.85h5.159a6.18 6.18 0 002.39-.48 6.236 6.236 0 002.028-1.368 6.32 6.32 0 001.355-2.05 6.381 6.381 0 00.476-2.419zm20.585-6.05a5.254 5.254 0 00-1.515-3.684 5.132 5.132 0 00-3.644-1.526H68.089V34.33h3.81v-7.138h3.945l5.91 7.138h4.613l-5.927-7.165c2.934-.228 4.485-2.017 4.482-5.202zm-13.029 1.928v-3.855h7.328c1.328 0 1.896.575 1.896 1.921 0 1.347-.569 1.92-1.896 1.92l-7.328.014zm29.217 10.439c3.242 0 4.956-1.732 4.956-5.012 0-2.106-.776-3.262-1.653-3.873.918-.792 1.381-2.026 1.381-3.68 0-3.28-1.715-5.012-4.957-5.012H88.691V34.33h12.419zm-8.614-14.28h7.597c1.331 0 1.896.576 1.896 1.922 0 1.347-.565 1.919-1.896 1.919h-7.597v-3.84zm7.866 7.142c1.331 0 1.9.572 1.9 1.918 0 1.347-.569 1.922-1.9 1.922h-7.866v-3.84h7.866zm23.05 7.138h3.893l-8.111-17.577h-3.405l-8.108 17.577h3.925l1.759-3.856h8.262l1.785 3.856zm-8.544-7.144l2.624-5.676 2.637 5.676h-5.261zm18.665 7.143V22.226l10.057 12.106h3.514V16.75h-3.805v12.105L133.243 16.75h-3.514v17.58h3.804z" fill="#fff"/><path d="M169.755 23.394h-6.826a1.966 1.966 0 01-1.408-.593 2.016 2.016 0 01-.58-1.427c0-1.405.587-2.005 1.988-2.005h11.662v-3.457h-12.187a5.4 5.4 0 00-3.871 1.632 5.531 5.531 0 00-1.578 3.931c.029 3.523 1.897 5.385 5.405 5.385h6.826a1.983 1.983 0 011.406.593c.372.378.582.89.582 1.424 0 1.406-.587 2.005-1.988 2.005h-11.947v3.458h12.472c.719 0 1.431-.145 2.094-.425a5.452 5.452 0 001.773-1.206 5.565 5.565 0 001.582-3.924c-.029-3.532-1.897-5.391-5.405-5.391zm7.533-4.024h7.395v14.96h3.986V19.37h7.392v-3.458h-18.773v3.457zm37.16-3.458l-5.637 7.82-5.627-7.82h-4.596l8.23 11.411v7.008h3.987v-7.008l8.23-11.411h-4.587zm23.366 14.96h-12.512v-14.96h-3.984V34.33h16.496v-3.458zm20.186 0h-13.365V26.85h12.228v-3.455h-12.228V19.37h13.081v-3.458h-17.067V34.33H258v-3.458z" fill="#F04B24"/></g><defs><clipPath id="clip0"><path fill="#fff" transform="translate(0 .001)" d="M0 0h258v39H0z"/></clipPath></defs></svg>
